manual-assets/professional/dde-file-manager/en_US/icon/I.svg

<?xml version="1.0" encoding="iso-8859-1"?>
<!-- Generator: Adobe Illustrator 18.0.0, SVG Export Plug-In . SVG Version: 6.00 Build 0)  -->
<!DOCTYPE svg PUBLIC "-//W3C//DTD SVG 1.1//EN" "http://www.w3.org/Graphics/SVG/1.1/DTD/svg11.dtd">
<svg version="1.1" id="&#x56FE;&#x5C42;_1" xmlns="http://www.w3.org/2000/svg" xmlns:xlink="http://www.w3.org/1999/xlink" x="0px"
	 y="0px" viewBox="0 0 20 20" enable-background="new 0 0 20 20" xml:space="preserve">
<g>
	<path opacity="0.1" fill="#FFFFFF" d="M15.7,19.5H4.3c-2.09,0-3.8-1.71-3.8-3.8V4.3c0-2.09,1.71-3.8,3.8-3.8h11.4
		c2.09,0,3.8,1.71,3.8,3.8v11.4C19.5,17.79,17.79,19.5,15.7,19.5z"/>
	<path fill="none" stroke="#CBCBCB" stroke-miterlimit="10" d="M15.5,19.5h-11c-2.209,0-4-1.791-4-4v-11c0-2.209,1.791-4,4-4h11
		c2.209,0,4,1.791,4,4v11C19.5,17.709,17.709,19.5,15.5,19.5z"/>
	<polygon points="12,6 12,5 9,5 9,6 10,6 10,13 9,13 9,14 12,14 12,13 11,13 11,6 	"/>
</g>
</svg>

<?xml version="1.0" encoding="UTF-8"?>
<svg width="20px" height="20px" viewBox="0 0 20 20" version="1.1" xmlns="http://www.w3.org/2000/svg" xmlns:xlink="http://www.w3.org/1999/xlink">
    <!-- Generator: Sketch 64 (93537) - https://sketch.com -->
    <title>I</title>
    <desc>Created with Sketch.</desc>
    <g id="页面-1" stroke="none" stroke-width="1" fill="none" fill-rule="evenodd">
        <g id="I">
            <path d="M15.7,19.5 L4.3,19.5 C2.21,19.5 0.5,17.79 0.5,15.7 L0.5,4.3 C0.5,2.21 2.21,0.5 4.3,0.5 L15.7,0.5 C17.79,0.5 19.5,2.21 19.5,4.3 L19.5,15.7 C19.5,17.79 17.79,19.5 15.7,19.5 Z" id="路径" fill="#FFFFFF" fill-rule="nonzero"></path>
            <path d="M15.5,19.5 L4.5,19.5 C2.291,19.5 0.5,17.709 0.5,15.5 L0.5,4.5 C0.5,2.291 2.291,0.5 4.5,0.5 L15.5,0.5 C17.709,0.5 19.5,2.291 19.5,4.5 L19.5,15.5 C19.5,17.709 17.709,19.5 15.5,19.5 Z" id="路径" stroke="#CBCBCB"></path>
            <polygon id="路径" fill="#000000" fill-rule="nonzero" points="12 6 12 5 9 5 9 6 10 6 10 13 9 13 9 14 12 14 12 13 11 13 11 6"></polygon>
        </g>
    </g>
</svg>
